packages/core/src/svgs/xdata.svg

<svg width="24" height="24" viewBox="0 0 24 24" fill="none" xmlns="http://www.w3.org/2000/svg">
<g clip-path="url(#clip0_31_20874)">
<path d="M0 0H24V24H0V0Z" fill="#F0F3FA"/>
<path d="M11.9999 10.6113C15.0769 10.6113 17.5713 9.48305 17.5713 8.09129C17.5713 6.69953 15.0769 5.57129 11.9999 5.57129C8.92288 5.57129 6.42847 6.69953 6.42847 8.09129C6.42847 9.48305 8.92288 10.6113 11.9999 10.6113Z" fill="#F0C419"/>
<path d="M6.42847 9.23584V10.8387C6.42847 12.2316 8.92275 13.3587 11.9999 13.3587C15.077 13.3587 17.5713 12.2316 17.5713 10.8387V9.24013H17.5499C17.2928 10.5216 14.9056 11.5287 11.9999 11.5287C9.09418 11.5287 6.70704 10.5216 6.4499 9.23584H6.42847Z" fill="#25AE5F"/>
<path d="M6.42847 11.9873V13.5902C6.42847 14.9787 8.92275 16.1102 11.9999 16.1102C15.077 16.1102 17.5713 14.9787 17.5713 13.5902V11.9873H17.5499C17.2928 13.273 14.9056 14.2759 11.9999 14.2759C9.09418 14.2759 6.70704 13.2687 6.4499 11.9873H6.42847Z" fill="#E64C3C"/>
<path d="M6.42847 14.7344V16.3372C6.42847 17.7301 8.92275 18.8572 11.9999 18.8572C15.077 18.8572 17.5713 17.7301 17.5713 16.3372V14.7344H17.5499C17.2928 16.0201 14.9056 17.0229 11.9999 17.0229C9.09418 17.0229 6.70704 16.0201 6.4499 14.7344H6.42847Z" fill="#7A69A7"/>
</g>
<defs>
<clipPath id="clip0_31_20874">
<rect width="24" height="24" fill="white"/>
</clipPath>
</defs>
</svg>

<svg xmlns="http://www.w3.org/2000/svg" width="24" height="24" fill="none" viewBox="0 0 24 24"><g clip-path="url(#a)"><path fill="#F0F3FA" d="M0 0h24v24H0z"/><path fill="#F0C419" d="M12 10.611c3.077 0 5.571-1.128 5.571-2.52 0-1.391-2.494-2.52-5.571-2.52S6.428 6.7 6.428 8.091s2.495 2.52 5.572 2.52"/><path fill="#25AE5F" d="M6.428 9.236v1.603c0 1.393 2.495 2.52 5.572 2.52s5.571-1.127 5.571-2.52V9.24h-.021c-.257 1.282-2.644 2.289-5.55 2.289s-5.293-1.007-5.55-2.293z"/><path fill="#E64C3C" d="M6.428 11.987v1.603c0 1.389 2.495 2.52 5.572 2.52s5.571-1.131 5.571-2.52v-1.603h-.021c-.257 1.286-2.644 2.289-5.55 2.289s-5.293-1.007-5.55-2.289z"/><path fill="#7A69A7" d="M6.428 14.734v1.603c0 1.393 2.495 2.52 5.572 2.52s5.571-1.127 5.571-2.52v-1.603h-.021c-.257 1.286-2.644 2.289-5.55 2.289s-5.293-1.003-5.55-2.289z"/></g><defs><clipPath id="a"><path fill="#fff" d="M0 0h24v24H0z"/></clipPath></defs></svg>
